X:10
T:Hornpipe
S:John Moore's Book 3
Z:Transcribed by Steve Mansfield 05/2021
%%VWML: Moore1-4495-p7-0
F:https://www.vwml.org/record/Moore3/4495/p7
M:C
L:1/8
K:Bb
F2 | Bcde fBAB | gBaB bBAB | GBFB EBDB | ecAc BAGF | 
Bcde fBAB | gBaB bBAB | GBFB EBDB | ecAc B2 :|
|: bBAB bBAB | gabg gfed | g^fgd eded | cdec BAGF | 
Bcde fBAB | gBaB bBAB | GBFB EBDB | ecAc B2z2 :| 

